X: 10421
Q: "Slow and plaintive."
M: 3/4
L: 1/8
K: Bb
f2 g2 (fe) | d2 g2 ({d}f>e) | d2 (f>d) c2 {Bc}| B4 :|
|: d>c |\
g2 (f>d) (B>F) | G2 B2 d>c | d2 f>d c2 {Bc}| B4 :|


